X:1
T:Saludo a la Bandera Argentina
T:Canto Nacional
T:Leopoldo Corretjer
%%score 1 2 { ( 3 4 ) ( 5 6 ) }
L:1/8
Q:1/4=90
M:2/4
K:Db
V:1 treble nm="Voz"
V:2 treble nm="Voz"
V:3 treble nm="MusicXML Part"
V:4 treble 
V:5 bass nm="MusicXML Part"
V:6 bass 
V:1
"^Maestoso" z4 | z4 | z4 | z4 || z4 | z4 | z4 | z4 | z4 | z4 | z4 | z4 | z4 | z4 | z4 | z4 | z4 | %17
w: |||||||||||||||||
 z4[Q:1/4=90][Q:1/4=89]"^.9" |[Q:1/4=89]"^.4" z4[Q:1/4=88]"^.8"[Q:1/4=87]"^.9"[Q:1/4=86]"^.8" | %19
w: ||
[Q:1/4=85]"^.4" z4[Q:1/4=83]"^.8"[Q:1/4=82][Q:1/4=80][Q:1/4=90] || z4 | z4 | z4 | z4 | z4 | z4 | %26
w: |||||||
 z4 | z4 || z4 | z4 | z4 | z4 | z4 | z4 | z4 | z4 | z4 | z4 | z4 | z4 | z4[Q:1/4=90] | %41
w: |||||||||||||||
[Q:1/4=89]"^.8""^Ossia" A[Q:1/4=89]"^.4" D[Q:1/4=88]"^.6" G[Q:1/4=87]"^.6" F | %42
w: pi- te mi fiel|
[Q:1/4=86]"^.3" z4[Q:1/4=84]"^.7"[Q:1/4=82]"^.9"[Q:1/4=80]"^.8" | %43
w: |
[Q:1/4=78]"^.5" z4[Q:1/4=75]"^.9"[Q:1/4=73]"^.1"[Q:1/4=70] |[Q:1/4=90] z4 | z4 |"^Ossia" A A A A | %47
w: |||mi fiel co- ra|
 z4 |] %48
w: |
V:2
 z4 | z4 | z4 | z4 ||"^Canto" F2 E D | (A2 F) D | A, D F A | B2 A z | D2 F A | d2 A F | D A, G F | %11
w: ||||Sal- veAr- gen-|ti- na, ban-|de- raa- zul y|blan- ca,|Ji- rón del|cie- lo en|don- deim- pe- rael|
 E2- E z | F2 E D | (A2 F) D | A, D F A | (c2 B) z | d2 c B | A D G F | E2 A2 | D2- D z || D2 D D | %21
w: sol; *|Tú la más|no- ble la|más glo- rio- say|san- ta,|el fir- ma-|men- to su co-|lor te|dió. *|El fir- ma-|
 d2 d2 | _c c c c | __B2- B z | __B2 B B | =C2 C2 | E E E E | A2- A z || F2 E D | A2 F D | %30
w: men- to|su co- lo te|dió. *|El fir- ma-|men- to|su co- lor te|dió. *|Yo te sa-|lu- do ban-|
 A, D F A | (B2 A) z | D2 F A | d2 A F | D A, G F | E2- E z | F2 E D | A2 F D | A, D F A | c2 B z | %40
w: de- ra de mi|pa- tria;|su- bli- meen-|se- ña de|li- ber- tad- yho-|nor. *|Ju- ran- doa-|mar- te co-|moa- sí de- fen-|der- te,|
 d2 c"^rall." B | AD G F | E2 A2 | D2- D z | D2 D D | F2 F2 | A2 A A | d2- d !fermata!z |] %48
w: mien- tras pal-|pi- * te mi|co- ra-|zón. *|Mien- tras pal-|pi- te|mi co- ra-|zón. *|
V:3
!f! [Acea]2 [Ad_fa]>[A=d=fa] |!>(! [Aega]4!>)! | x4 | x4 ||!ff! !>![FAf]2 [EAe][DAd] | %5
 !>![Ada]2 [Fdf][DFd] | [A,DFA][DFAd] !>![FAdf]!>![Adfa] | ((((!>![Bd=eb]2 [Adfa])))) z | %8
"_pesante" !>![DFd]2 [Fdf][Aca] | !>![dad']2 ([Ada][Ff] | [Dd])[A,DFA] [GBdeg][FAdf] | %11
 [EAce](3A/A/A/ [ega]A | !>![FAf]2 [EAe][DAd] | !>![Ada]2 ([Fdf][DFd] | %14
!<(! [A,DFA])[DFAd] [FAdf][Adfa] | ((([cac']2!<)! [Bgb]))) z | !>![d=ebd']2 [cec'][Bdeb] | %17
 [Adfa]!>![DFBd] !>![GBeg]!>![FAdf] | !>![EAde]2 !>![Acea]2 | [DFAd]2- [DFAd] z ||!p! D2 DD | %21
"_celeste" (([_F-__Bd]4 | ((([!courtesy!_FA_c]4)) | [DG__B]4))) |!mf! [=CE__B]4 | x4 | %26
 ((([__B,DE]4 |!<(! [A,CA]4)))!<)! || !>![FAf]2 [EAe][DAd] | !>![Ada]2 [Fdf][DFd] | %30
 [A,DFA][DFAd] !>![FAdf]!>![Adfa] | ((((!>![Bd=eb]2 [Adfa])))) z |"_pesante" !>![DFd]2 [Fdf][Aca] | %33
 !>![dad']2 ([Ada][Ff] | [Dd])[A,DFA] [GBdeg][FAdf] | [EAce](3A/A/A/ [ega]A | [FAf]2 [EAe][DAd] | %37
 [Ada]2 ([Fdf][DFd] |!<(! [A,DFA])[DFAd] [FAdf][Adfa] | ((([cac']2!<)! [Bgb]))) z | %40
 [d=ebd']2 [cec']"_Poco rall."[Bdeb] |!ff! [Adfa][DFBd] [GBeg]!^![FAdf] | !^![EAde]2 !^![Acea]2 | %43
!>(! !^![DFAd]2- [DFAd] z!>)! | z4 | z4 | [A,EA]4 |!ff! [DFd]2- [DFd] !fermata!z |] %48
V:4
 x4 | x4 | x4 | x4 || x4 | x4 | x4 | x4 | x4 | x4 | x4 | x4 | x4 | x4 | x4 | x4 | x4 | x4 | x4 | %19
 x4 || x4 | x4 | x4 | x4 | x4 | x4 | x4 | x4 || x4 | x4 | x4 | x4 | x4 | x4 | x4 | x4 | x4 | x4 | %38
 x4 | x4 | x4 | x4 | x4 | x4 | x4 | x4 | D2 C2 | x4 |] %48
V:5
 [A,,A,]2 [A,,A,]>[A,,A,] | [A,,C]4 |!p! ([A,C]2!<(! [A,B,D]>[A,=B,=D]!<)! | [A,CE]4) || %4
 ([D,,A,,D,]A,,) [E,,A,,E,][F,,A,,F,] | ([D,,A,,F,]D,){/=G,,} A,,2- | %6
 A,,/(A,,,/D,,/F,,/) (A,,/D,/F,/A,/) | =G,G, A, x | %8
 !>![B,,,B,,]!>![__B,,,__B,,] !>![A,,,A,,]!>![_G,,,_G,,] | (!>![F,,,F,,]A,,) ([D,A,F][A,D] | %10
 !>![F,A,]) [D,,,D,,]!>![E,,,E,,][F,,,F,,] | !>![G,,,G,,][A,,,A,,] !>![B,,,B,,][C,,C,] | %12
 ([D,,A,,D,]A,,) [E,,A,,E,][F,,A,,F,] | ([D,,A,,F,]A,,){/=G,,} A,,2- | %14
 A,,/(A,,,/D,,/F,,/) (A,,/D,/F,/A,/) | [G,,,G,,] !>![G,B,E]2 =E | (=G,,, =G,,2) [G,,=G,] | %17
 [A,,A,]!ff!!>![B,,B,]"^poco rall." !>![E,,E,]!>![A,,A,] | (!>![A,,,A,,]A,,) ([E,G,]A,,) | %19
 [D,F,](A,, F,,"^a tempo"A,,) || z4 | (__B,4 | (_F,4) | _G,4) | _G,4 | [E,__B,=C]4 | (G,4- | %27
 G,)(G,F,E,) || ([D,,A,,D,]A,,) [E,,A,,E,][F,,A,,F,] | ([D,,A,,F,]D,){/=G,,} A,,2- | %30
 A,,/(A,,,/D,,/F,,/) (A,,/D,/F,/A,/) | =G,G, A, x | %32
 !^![B,,,B,,]!^![__B,,,__B,,] !^![A,,,A,,]!^![_G,,,_G,,] | ([F,,,F,,]A,,) ([D,A,F][A,D] | %34
 !^![F,A,]) [D,,,D,,]!^![E,,,E,,]!^![F,,,F,,] | !^![G,,,G,,][A,,,A,,] !^![B,,,B,,][C,,C,] | %36
 ([D,,A,,D,]A,,) [E,,A,,E,][F,,A,,F,] | ([D,,A,,F,]A,,){/=G,,} A,,2- | %38
 A,,/(A,,,/D,,/F,,/) (A,,/D,/F,/A,/) | [G,,,G,,] !>![G,B,E]2 =E | (=G,,, =G,,2) [G,,=G,] | %41
 [A,,A,][B,,B,] [E,,E,]!^![A,,A,] | (!^![A,,,A,,]A,,) (!^![E,G,]A,,) | %43
 (!^![D,F,]A,,) (F,,"^a tempo"A,,) |!p!!<(! [D,F,D]4!<)! |"^cresc." [F,DF]4 | A,,,2 A,,2- | %47
 [D,,A,,]2 !^!D,,2 |] %48
V:6
 x4 | x4 | [A,,,A,,]2 [A,,,A,,]>[A,,,A,,] | [A,,,A,,]2 [A,,,A,,]2 || x4 | x4 | x4 | %7
 ([D,-=E,]2 [D,F,])A,, | x4 | x4 | x4 | x4 | x4 | x4 | x4 | x4 | x4 | x4 | x4 | x4 || x4 | x4 | %22
 x4 | x4 | x4 | G,,4 | x4 | A,,(G,,F,,E,,) || x4 | x4 | x4 | ([D,-=E,]2 [D,F,])A,, | x4 | x4 | x4 | %35
 x4 | x4 | x4 | x4 | x4 | x4 | x4 | x4 | x4 | B,,4 | A,,4 | x4 | x4 |] %48

